X: 38384
T: Star Of Ireland, The
R: reel
M: 4/4
K: Dmajor
A3 B AFDC|DAGE DCA,C|DA,FD A,DFD|EA A2 cAGA|
(3ded ce dcAG|FAEA DCA,C|DA,DA G=CEG|Addc d4:|
EA A2 EACA|(3ded ec dcAB|(3=cBc gc acgc|dged cAAB|
=cBcd BABc|ADFA dAFA|cA A2 gece|(3ded ce d4:|

